X: 29937
T: O'Sullivan's March
R: jig
M: 6/8
K: Cdorian
Bdc cdf|gfdc2B|Bdc cdc|cBB~B3|
Bdc cdf|gfdc2B|Bdc cdc|1 cBBB2F:|2 cBBB2b||
|:gbg gbg|gbg g2d|fgd fgd|fgB cdf|
bgg gfg|bgfc2B|Bdc cdc|1 cBBB2f:|2 cBB~B3||

